Newaita-dark/apps/128/preferences-desktop-wallpaper.svg

<?xml version="1.0" encoding="UTF-8"?>
<svg xmlns="http://www.w3.org/2000/svg" xmlns:xlink="http://www.w3.org/1999/xlink" width="128pt" height="128pt" viewBox="0 0 128 128" version="1.1">
<defs>
<linearGradient id="linear0" gradientUnits="userSpaceOnUse" x1="305.954559" y1="-31.87709" x2="305.954559" y2="-147.500061" gradientTransform="matrix(0.290148,0,0,0.837186,-24.080806,138.82275)">
<stop offset="0" style="stop-color:rgb(25.882353%,64.705882%,96.078431%);stop-opacity:1;"/>
<stop offset="1" style="stop-color:rgb(62.352941%,65.882353%,85.490196%);stop-opacity:1;"/>
</linearGradient>
<linearGradient id="linear1" gradientUnits="userSpaceOnUse" x1="960" y1="1615.118164" x2="960" y2="1015.118103" gradientTransform="matrix(0.0636828,0,0,0.0636828,-1.538813,9.280393)">
<stop offset="0" style="stop-color:rgb(21.568627%,27.843137%,30.980392%);stop-opacity:1;"/>
<stop offset="1" style="stop-color:rgb(27.058824%,35.294118%,39.215686%);stop-opacity:1;"/>
</linearGradient>
<linearGradient id="linear2" gradientUnits="userSpaceOnUse" x1="1400" y1="695.118103" x2="1400" y2="455.118103" gradientTransform="matrix(0.0636828,0,0,0.0636828,9.924089,0.107451)">
<stop offset="0" style="stop-color:rgb(99.215686%,84.705882%,20.784314%);stop-opacity:1;"/>
<stop offset="1" style="stop-color:rgb(100%,94.509804%,46.27451%);stop-opacity:1;"/>
</linearGradient>
<linearGradient id="linear3" gradientUnits="userSpaceOnUse" x1="254" y1="233.5" x2="254" y2="254.666672" gradientTransform="matrix(0.250024,0,0,0.250024,-0.0000152602,53.755133)">
<stop offset="0" style="stop-color:rgb(0%,0%,0%);stop-opacity:0.27451;"/>
<stop offset="1" style="stop-color:rgb(0%,0%,0%);stop-opacity:0;"/>
</linearGradient>
<radialGradient id="radial0" gradientUnits="userSpaceOnUse" cx="450.908936" cy="189.579361" fx="450.908936" fy="189.579361" r="21.166656" gradientTransform="matrix(0.000000696681,-0.31253,-0.562554,-0.000000406154,213.814764,254.381323)">
<stop offset="0" style="stop-color:rgb(0%,0%,0%);stop-opacity:0.313725;"/>
<stop offset="0.222222" style="stop-color:rgb(0%,0%,0%);stop-opacity:0.27451;"/>
<stop offset="1" style="stop-color:rgb(0%,0%,0%);stop-opacity:0;"/>
</radialGradient>
<radialGradient id="radial1" gradientUnits="userSpaceOnUse" cx="450.908936" cy="189.579361" fx="450.908936" fy="189.579361" r="21.166656" gradientTransform="matrix(-0.000000696681,0.31253,0.562554,0.000000406154,-86.802646,-30.109923)">
<stop offset="0" style="stop-color:rgb(0%,0%,0%);stop-opacity:0.313725;"/>
<stop offset="0.222222" style="stop-color:rgb(0%,0%,0%);stop-opacity:0.27451;"/>
<stop offset="1" style="stop-color:rgb(0%,0%,0%);stop-opacity:0;"/>
</radialGradient>
<radialGradient id="radial2" gradientUnits="userSpaceOnUse" cx="450.908936" cy="189.579361" fx="450.908936" fy="189.579361" r="21.166656" gradientTransform="matrix(-0.000000696681,-0.31253,0.562554,-0.000000406154,-86.802646,254.381323)">
<stop offset="0" style="stop-color:rgb(0%,0%,0%);stop-opacity:0.313725;"/>
<stop offset="0.222222" style="stop-color:rgb(0%,0%,0%);stop-opacity:0.27451;"/>
<stop offset="1" style="stop-color:rgb(0%,0%,0%);stop-opacity:0;"/>
</radialGradient>
<radialGradient id="radial3" gradientUnits="userSpaceOnUse" cx="450.908936" cy="189.579361" fx="450.908936" fy="189.579361" r="21.166656" gradientTransform="matrix(0.000000696681,0.31253,-0.562554,0.000000406154,213.814756,-30.109925)">
<stop offset="0" style="stop-color:rgb(0%,0%,0%);stop-opacity:0.313725;"/>
<stop offset="0.222222" style="stop-color:rgb(0%,0%,0%);stop-opacity:0.27451;"/>
<stop offset="1" style="stop-color:rgb(0%,0%,0%);stop-opacity:0;"/>
</radialGradient>
<linearGradient id="linear4" gradientUnits="userSpaceOnUse" x1="1120" y1="1695.118164" x2="1120" y2="255.118118" gradientTransform="matrix(0.0661521,0,0,0.0661521,0,0.0547156)">
<stop offset="0" style="stop-color:rgb(69.019608%,74.509804%,77.254902%);stop-opacity:1;"/>
<stop offset="1" style="stop-color:rgb(81.176471%,84.705882%,86.27451%);stop-opacity:1;"/>
</linearGradient>
<linearGradient id="linear5" gradientUnits="userSpaceOnUse" x1="444.5" y1="185.875" x2="444.5" y2="148.833328" gradientTransform="matrix(0.5,0,0,0.571428,-105.833473,106.337929)">
<stop offset="0" style="stop-color:rgb(47.058824%,56.470588%,61.176471%);stop-opacity:1;"/>
<stop offset="1" style="stop-color:rgb(37.647059%,49.019608%,54.509804%);stop-opacity:1;"/>
</linearGradient>
<linearGradient id="linear6" gradientUnits="userSpaceOnUse" x1="444.5" y1="185.875" x2="444.5" y2="148.833328" gradientTransform="matrix(0.5,0,0,0.571428,-63.500114,106.337929)">
<stop offset="0" style="stop-color:rgb(47.058824%,56.470588%,61.176471%);stop-opacity:1;"/>
<stop offset="1" style="stop-color:rgb(37.647059%,49.019608%,54.509804%);stop-opacity:1;"/>
</linearGradient>
<linearGradient id="linear7" gradientUnits="userSpaceOnUse" x1="444.5" y1="185.875" x2="444.5" y2="148.833328" gradientTransform="matrix(0.5,0,0,0.571428,-21.166803,106.337929)">
<stop offset="0" style="stop-color:rgb(47.058824%,56.470588%,61.176471%);stop-opacity:1;"/>
<stop offset="1" style="stop-color:rgb(37.647059%,49.019608%,54.509804%);stop-opacity:1;"/>
</linearGradient>
<linearGradient id="linear8" gradientUnits="userSpaceOnUse" x1="444.5" y1="185.875" x2="444.5" y2="148.833328" gradientTransform="matrix(0.5,0,0,0.571428,169.333206,106.337929)">
<stop offset="0" style="stop-color:rgb(47.058824%,56.470588%,61.176471%);stop-opacity:1;"/>
<stop offset="1" style="stop-color:rgb(37.647059%,49.019608%,54.509804%);stop-opacity:1;"/>
</linearGradient>
</defs>
<g id="surface1">
<path style=" stroke:none;fill-rule:nonzero;fill:url(#linear0);" d="M 13.230469 16.875 C 10.296875 16.875 7.9375 19.238281 7.9375 22.167969 L 7.9375 106.84375 C 7.9375 109.773438 10.296875 112.136719 13.230469 112.136719 L 113.78125 112.136719 C 116.714844 112.136719 119.074219 109.773438 119.074219 106.84375 L 119.074219 22.167969 C 119.074219 19.238281 116.714844 16.875 113.78125 16.875 Z M 13.230469 16.875 "/>
<path style=" stroke:none;fill-rule:nonzero;fill:url(#linear1);" d="M 27.074219 73.558594 C 26.800781 73.558594 26.527344 73.570312 26.261719 73.597656 C 18.417969 74.402344 14.128906 78.695312 7.9375 82.910156 L 7.9375 106.84375 C 7.9375 109.773438 10.296875 112.136719 13.230469 112.136719 L 113.78125 112.136719 C 116.714844 112.136719 119.074219 109.773438 119.074219 106.84375 L 119.074219 86.40625 C 101.269531 94.570312 94.773438 82.535156 86.757812 80.4375 C 77.515625 78.015625 65.390625 89.015625 56.0625 87.894531 C 47.027344 86.808594 35.59375 73.585938 27.074219 73.558594 Z M 27.074219 73.558594 "/>
<path style=" stroke:none;fill-rule:nonzero;fill:url(#linear2);" d="M 99.078125 29.089844 C 97.6875 29.089844 96.382812 29.460938 95.257812 30.105469 C 97.546875 31.425781 99.078125 33.894531 99.078125 36.734375 C 99.078125 39.574219 97.546875 42.039062 95.257812 43.359375 C 96.382812 44.003906 97.6875 44.375 99.078125 44.375 C 103.3125 44.375 106.722656 40.964844 106.722656 36.734375 C 106.722656 32.5 103.3125 29.089844 99.078125 29.089844 Z M 99.078125 29.089844 "/>
<path style=" stroke:none;fill-rule:nonzero;fill:url(#linear3);" d="M 18.523438 112.136719 L 108.488281 112.136719 L 108.488281 117.429688 L 18.523438 117.429688 Z M 18.523438 112.136719 "/>
<path style=" stroke:none;fill-rule:nonzero;fill:url(#radial0);" d="M 108.488281 112.136719 L 119.074219 112.136719 L 119.074219 106.84375 L 108.488281 106.84375 Z M 108.488281 112.136719 "/>
<path style=" stroke:none;fill-rule:nonzero;fill:url(#radial1);" d="M 18.523438 112.136719 L 7.9375 112.136719 L 7.9375 117.429688 L 18.523438 117.429688 Z M 18.523438 112.136719 "/>
<path style=" stroke:none;fill-rule:nonzero;fill:url(#radial2);" d="M 18.523438 112.136719 L 7.9375 112.136719 L 7.9375 106.84375 L 18.523438 106.84375 Z M 18.523438 112.136719 "/>
<path style=" stroke:none;fill-rule:nonzero;fill:url(#radial3);" d="M 108.488281 112.136719 L 119.074219 112.136719 L 119.074219 117.429688 L 108.488281 117.429688 Z M 108.488281 112.136719 "/>
<path style=" stroke:none;fill-rule:nonzero;fill:rgb(0%,0%,0%);fill-opacity:0.235294;" d="M 13.230469 112.1875 C 10.296875 112.1875 7.9375 109.828125 7.9375 106.894531 L 7.9375 105.519531 C 7.9375 108.453125 10.296875 110.8125 13.230469 110.8125 L 113.78125 110.8125 C 116.714844 110.8125 119.074219 108.453125 119.074219 105.519531 L 119.074219 106.894531 C 119.074219 109.828125 116.714844 112.1875 113.78125 112.1875 Z M 13.230469 112.1875 "/>
<path style=" stroke:none;fill-rule:nonzero;fill:url(#linear4);" d="M 26.460938 96.3125 C 23.527344 96.3125 21.167969 98.675781 21.167969 101.605469 L 21.167969 109.542969 C 21.167969 111.011719 22.347656 112.191406 23.816406 112.191406 L 103.199219 112.191406 C 104.664062 112.191406 105.84375 111.011719 105.84375 109.542969 L 105.84375 101.605469 C 105.84375 98.675781 103.484375 96.3125 100.550781 96.3125 Z M 26.460938 96.3125 "/>
<path style="fill-rule:nonzero;fill:url(#linear5);stroke-width:3;stroke-linecap:round;stroke-linejoin:miter;stroke:rgb(12.941177%,12.941177%,12.941177%);stroke-opacity:1;stroke-miterlimit:4;" d="M 116.410758 191.383067 C 122.25395 191.383067 127.003497 196.11699 127.003497 201.975806 C 127.003497 207.818998 122.25395 212.552921 116.410758 212.552921 C 110.567566 212.552921 105.833643 207.818998 105.833643 201.975806 C 105.833643 196.11699 110.567566 191.383067 116.410758 191.383067 Z M 116.410758 191.383067 " transform="matrix(0.250024,0,0,0.250024,0,53.755133)"/>
<path style="fill-rule:nonzero;fill:url(#linear6);stroke-width:3;stroke-linecap:round;stroke-linejoin:miter;stroke:rgb(12.941177%,12.941177%,12.941177%);stroke-opacity:1;stroke-miterlimit:4;" d="M 158.750465 191.383067 C 164.593657 191.383067 169.32758 196.11699 169.32758 201.975806 C 169.32758 207.818998 164.593657 212.552921 158.750465 212.552921 C 152.907273 212.552921 148.17335 207.818998 148.17335 201.975806 C 148.17335 196.11699 152.907273 191.383067 158.750465 191.383067 Z M 158.750465 191.383067 " transform="matrix(0.250024,0,0,0.250024,0,53.755133)"/>
<path style="fill-rule:nonzero;fill:url(#linear7);stroke-width:3;stroke-linecap:round;stroke-linejoin:miter;stroke:rgb(12.941177%,12.941177%,12.941177%);stroke-opacity:1;stroke-miterlimit:4;" d="M 201.090172 191.383067 C 206.933364 191.383067 211.667287 196.11699 211.667287 201.975806 C 211.667287 207.818998 206.933364 212.552921 201.090172 212.552921 C 195.231356 212.552921 190.497433 207.818998 190.497433 201.975806 C 190.497433 196.11699 195.231356 191.383067 201.090172 191.383067 Z M 201.090172 191.383067 " transform="matrix(0.250024,0,0,0.250024,0,53.755133)"/>
<path style="fill-rule:nonzero;fill:url(#linear8);stroke-width:3;stroke-linecap:round;stroke-linejoin:miter;stroke:rgb(12.941177%,12.941177%,12.941177%);stroke-opacity:1;stroke-miterlimit:4;" d="M 391.587605 191.383067 C 397.430797 191.383067 402.16472 196.11699 402.16472 201.975806 C 402.16472 207.818998 397.430797 212.552921 391.587605 212.552921 C 385.744413 212.552921 380.994867 207.818998 380.994867 201.975806 C 380.994867 196.11699 385.744413 191.383067 391.587605 191.383067 Z M 391.587605 191.383067 " transform="matrix(0.250024,0,0,0.250024,0,53.755133)"/>
<path style=" stroke:none;fill-rule:nonzero;fill:rgb(100%,100%,100%);fill-opacity:0.588235;" d="M 26.460938 96.3125 C 23.527344 96.3125 21.167969 98.675781 21.167969 101.605469 L 21.167969 102.875 C 21.167969 99.941406 23.527344 97.582031 26.460938 97.582031 L 100.550781 97.582031 C 103.484375 97.582031 105.84375 99.941406 105.84375 102.875 L 105.84375 101.605469 C 105.84375 98.675781 103.484375 96.3125 100.550781 96.3125 Z M 26.460938 96.3125 "/>
<path style=" stroke:none;fill-rule:nonzero;fill:rgb(0%,0%,0%);fill-opacity:0.235294;" d="M 21.167969 108.222656 L 21.167969 109.542969 C 21.167969 111.011719 22.347656 112.191406 23.816406 112.191406 L 103.199219 112.191406 C 104.664062 112.191406 105.84375 111.011719 105.84375 109.542969 L 105.84375 108.222656 C 105.84375 109.6875 104.664062 110.867188 103.199219 110.867188 L 23.816406 110.867188 C 22.347656 110.867188 21.167969 109.6875 21.167969 108.222656 Z M 21.167969 108.222656 "/>
<path style=" stroke:none;fill-rule:nonzero;fill:rgb(12.941177%,12.941177%,12.941177%);fill-opacity:1;" d="M 26.460938 95.9375 C 23.328125 95.9375 20.792969 98.472656 20.792969 101.605469 L 20.792969 109.542969 C 20.792969 111.210938 22.148438 112.566406 23.816406 112.566406 L 103.199219 112.566406 C 104.863281 112.566406 106.21875 111.210938 106.21875 109.542969 L 106.21875 101.605469 C 106.21875 98.472656 103.683594 95.9375 100.550781 95.9375 Z M 26.460938 96.6875 L 100.550781 96.6875 C 103.28125 96.6875 105.46875 98.875 105.46875 101.605469 L 105.46875 109.542969 C 105.46875 110.808594 104.460938 111.816406 103.199219 111.816406 L 23.816406 111.816406 C 22.550781 111.816406 21.542969 110.808594 21.542969 109.542969 L 21.542969 101.605469 C 21.542969 98.875 23.730469 96.6875 26.460938 96.6875 Z M 26.460938 96.6875 "/>
<path style=" stroke:none;fill-rule:nonzero;fill:rgb(100%,100%,100%);fill-opacity:0.392157;" d="M 13.230469 17.183594 C 10.296875 17.183594 7.9375 19.542969 7.9375 22.472656 L 7.9375 23.847656 C 7.9375 20.917969 10.296875 18.558594 13.230469 18.558594 L 113.78125 18.558594 C 116.714844 18.558594 119.074219 20.917969 119.074219 23.847656 L 119.074219 22.472656 C 119.074219 19.542969 116.714844 17.183594 113.78125 17.183594 Z M 13.230469 17.183594 "/>
<path style=" stroke:none;fill-rule:nonzero;fill:rgb(12.941177%,12.941177%,12.941177%);fill-opacity:1;" d="M 13.230469 16.5 C 10.097656 16.5 7.5625 19.035156 7.5625 22.167969 L 7.5625 106.84375 C 7.5625 109.976562 10.097656 112.511719 13.230469 112.511719 L 113.78125 112.511719 C 116.914062 112.511719 119.449219 109.976562 119.449219 106.84375 L 119.449219 22.167969 C 119.449219 19.035156 116.914062 16.5 113.78125 16.5 Z M 13.230469 17.25 L 113.78125 17.25 C 116.511719 17.25 118.699219 19.4375 118.699219 22.167969 L 118.699219 106.84375 C 118.699219 109.574219 116.511719 111.761719 113.78125 111.761719 L 13.230469 111.761719 C 10.5 111.761719 8.3125 109.574219 8.3125 106.84375 L 8.3125 22.167969 C 8.3125 19.4375 10.5 17.25 13.230469 17.25 Z M 13.230469 17.25 "/>
</g>
</svg>

<svg xmlns="http://www.w3.org/2000/svg" width="128pt" height="128pt" viewBox="0 0 128 128"><defs><linearGradient id="a" gradientUnits="userSpaceOnUse" x1="305.955" y1="-31.877" x2="305.955" y2="-147.5" gradientTransform="matrix(.29015 0 0 .83719 -24.08 138.823)"><stop offset="0" stop-color="#42a5f5"/><stop offset="1" stop-color="#9fa8da"/></linearGradient><linearGradient id="b" gradientUnits="userSpaceOnUse" x1="960" y1="1615.118" x2="960" y2="1015.118" gradientTransform="matrix(.06368 0 0 .06368 -1.539 9.28)"><stop offset="0" stop-color="#37474f"/><stop offset="1" stop-color="#455a64"/></linearGradient><linearGradient id="c" gradientUnits="userSpaceOnUse" x1="1400" y1="695.118" x2="1400" y2="455.118" gradientTransform="matrix(.06368 0 0 .06368 9.924 .107)"><stop offset="0" stop-color="#fdd835"/><stop offset="1" stop-color="#fff176"/></linearGradient><linearGradient id="d" gradientUnits="userSpaceOnUse" x1="254" y1="233.5" x2="254" y2="254.667" gradientTransform="matrix(.25002 0 0 .25002 0 53.755)"><stop offset="0" stop-opacity=".275"/><stop offset="1" stop-opacity="0"/></linearGradient><radialGradient id="e" gradientUnits="userSpaceOnUse" cx="450.909" cy="189.579" fx="450.909" fy="189.579" r="21.167" gradientTransform="matrix(0 -.31253 -.56255 0 213.815 254.381)"><stop offset="0" stop-opacity=".314"/><stop offset=".222" stop-opacity=".275"/><stop offset="1" stop-opacity="0"/></radialGradient><radialGradient id="f" gradientUnits="userSpaceOnUse" cx="450.909" cy="189.579" fx="450.909" fy="189.579" r="21.167" gradientTransform="matrix(0 .31253 .56255 0 -86.803 -30.11)"><stop offset="0" stop-opacity=".314"/><stop offset=".222" stop-opacity=".275"/><stop offset="1" stop-opacity="0"/></radialGradient><radialGradient id="g" gradientUnits="userSpaceOnUse" cx="450.909" cy="189.579" fx="450.909" fy="189.579" r="21.167" gradientTransform="matrix(0 -.31253 .56255 0 -86.803 254.381)"><stop offset="0" stop-opacity=".314"/><stop offset=".222" stop-opacity=".275"/><stop offset="1" stop-opacity="0"/></radialGradient><radialGradient id="h" gradientUnits="userSpaceOnUse" cx="450.909" cy="189.579" fx="450.909" fy="189.579" r="21.167" gradientTransform="matrix(0 .31253 -.56255 0 213.815 -30.11)"><stop offset="0" stop-opacity=".314"/><stop offset=".222" stop-opacity=".275"/><stop offset="1" stop-opacity="0"/></radialGradient><linearGradient id="i" gradientUnits="userSpaceOnUse" x1="1120" y1="1695.118" x2="1120" y2="255.118" gradientTransform="translate(0 .055) scale(.06615)"><stop offset="0" stop-color="#b0bec5"/><stop offset="1" stop-color="#cfd8dc"/></linearGradient><linearGradient id="j" gradientUnits="userSpaceOnUse" x1="444.5" y1="185.875" x2="444.5" y2="148.833" gradientTransform="matrix(.5 0 0 .57143 -105.833 106.338)"><stop offset="0" stop-color="#78909c"/><stop offset="1" stop-color="#607d8b"/></linearGradient><linearGradient id="k" gradientUnits="userSpaceOnUse" x1="444.5" y1="185.875" x2="444.5" y2="148.833" gradientTransform="matrix(.5 0 0 .57143 -63.5 106.338)"><stop offset="0" stop-color="#78909c"/><stop offset="1" stop-color="#607d8b"/></linearGradient><linearGradient id="l" gradientUnits="userSpaceOnUse" x1="444.5" y1="185.875" x2="444.5" y2="148.833" gradientTransform="matrix(.5 0 0 .57143 -21.167 106.338)"><stop offset="0" stop-color="#78909c"/><stop offset="1" stop-color="#607d8b"/></linearGradient><linearGradient id="m" gradientUnits="userSpaceOnUse" x1="444.5" y1="185.875" x2="444.5" y2="148.833" gradientTransform="matrix(.5 0 0 .57143 169.333 106.338)"><stop offset="0" stop-color="#78909c"/><stop offset="1" stop-color="#607d8b"/></linearGradient></defs><path d="M13.23 16.875a5.282 5.282 0 0 0-5.293 5.293v84.676c0 2.93 2.36 5.293 5.293 5.293h100.551a5.282 5.282 0 0 0 5.293-5.293V22.168c0-2.93-2.36-5.293-5.293-5.293zm0 0" fill="url(#a)"/><path d="M27.074 73.559a7.97 7.97 0 0 0-.812.039c-7.844.804-12.133 5.097-18.325 9.312v23.934c0 2.93 2.36 5.293 5.293 5.293h100.551a5.282 5.282 0 0 0 5.293-5.293V86.406c-17.804 8.164-24.3-3.87-32.316-5.969-9.242-2.421-21.367 8.579-30.695 7.458-9.036-1.086-20.47-14.31-28.989-14.336zm0 0" fill="url(#b)"/><path d="M99.078 29.09c-1.39 0-2.695.37-3.82 1.015a7.628 7.628 0 0 1 3.82 6.63 7.622 7.622 0 0 1-3.82 6.624 7.664 7.664 0 0 0 3.82 1.016 7.628 7.628 0 0 0 7.645-7.64 7.629 7.629 0 0 0-7.645-7.645zm0 0" fill="url(#c)"/><path d="M18.523 112.137h89.965v5.293H18.523zm0 0" fill="url(#d)"/><path d="M108.488 112.137h10.586v-5.293h-10.586zm0 0" fill="url(#e)"/><path d="M18.523 112.137H7.938v5.293h10.585zm0 0" fill="url(#f)"/><path d="M18.523 112.137H7.938v-5.293h10.585zm0 0" fill="url(#g)"/><path d="M108.488 112.137h10.586v5.293h-10.586zm0 0" fill="url(#h)"/><path d="M13.23 112.188a5.28 5.28 0 0 1-5.293-5.293v-1.375a5.28 5.28 0 0 0 5.293 5.293h100.551a5.28 5.28 0 0 0 5.293-5.293v1.375a5.28 5.28 0 0 1-5.293 5.293zm0 0" fill-opacity=".235"/><path d="M26.46 96.313a5.282 5.282 0 0 0-5.292 5.292v7.938a2.64 2.64 0 0 0 2.648 2.648H103.2a2.64 2.64 0 0 0 2.645-2.648v-7.938c0-2.93-2.36-5.293-5.293-5.293zm0 0" fill="url(#i)"/><path d="M116.41 191.383c5.844 0 10.593 4.734 10.593 10.593 0 5.843-4.749 10.577-10.592 10.577-5.843 0-10.577-4.734-10.577-10.577 0-5.859 4.734-10.593 10.577-10.593zm0 0" transform="matrix(.25002 0 0 .25002 0 53.755)" fill="url(#j)" stroke-width="3" stroke-linecap="round" stroke="#212121"/><path d="M158.75 191.383c5.844 0 10.578 4.734 10.578 10.593 0 5.843-4.734 10.577-10.578 10.577-5.843 0-10.577-4.734-10.577-10.577 0-5.859 4.734-10.593 10.577-10.593zm0 0" transform="matrix(.25002 0 0 .25002 0 53.755)" fill="url(#k)" stroke-width="3" stroke-linecap="round" stroke="#212121"/><path d="M201.09 191.383c5.843 0 10.577 4.734 10.577 10.593 0 5.843-4.734 10.577-10.577 10.577-5.859 0-10.593-4.734-10.593-10.577a10.582 10.582 0 0 1 10.593-10.593zm0 0" transform="matrix(.25002 0 0 .25002 0 53.755)" fill="url(#l)" stroke-width="3" stroke-linecap="round" stroke="#212121"/><path d="M391.588 191.383c5.843 0 10.577 4.734 10.577 10.593 0 5.843-4.734 10.577-10.577 10.577-5.844 0-10.593-4.734-10.593-10.577 0-5.859 4.75-10.593 10.593-10.593zm0 0" transform="matrix(.25002 0 0 .25002 0 53.755)" fill="url(#m)" stroke-width="3" stroke-linecap="round" stroke="#212121"/><path d="M26.46 96.313a5.282 5.282 0 0 0-5.292 5.292v1.27a5.28 5.28 0 0 1 5.293-5.293h74.09a5.28 5.28 0 0 1 5.293 5.293v-1.27c0-2.93-2.36-5.293-5.293-5.293zm0 0" fill="#fff" fill-opacity=".588"/><path d="M21.168 108.223v1.32a2.64 2.64 0 0 0 2.648 2.648H103.2a2.64 2.64 0 0 0 2.645-2.648v-1.32a2.639 2.639 0 0 1-2.645 2.644H23.816a2.64 2.64 0 0 1-2.648-2.644zm0 0" fill-opacity=".235"/><path d="M26.46 95.938a5.665 5.665 0 0 0-5.667 5.667v7.938a3.026 3.026 0 0 0 3.023 3.023H103.2a3.025 3.025 0 0 0 3.02-3.023v-7.938a5.665 5.665 0 0 0-5.668-5.668zm0 .75h74.09a4.9 4.9 0 0 1 4.919 4.917v7.938a2.26 2.26 0 0 1-2.27 2.273H23.816a2.26 2.26 0 0 1-2.273-2.273v-7.938a4.9 4.9 0 0 1 4.918-4.918zm0 0" fill="#212121"/><path d="M13.23 17.184a5.279 5.279 0 0 0-5.293 5.289v1.375c0-2.93 2.36-5.29 5.293-5.29h100.551a5.279 5.279 0 0 1 5.293 5.29v-1.375c0-2.93-2.36-5.29-5.293-5.29zm0 0" fill="#fff" fill-opacity=".392"/><path d="M13.23 16.5a5.665 5.665 0 0 0-5.668 5.668v84.676a5.665 5.665 0 0 0 5.668 5.668h100.551a5.665 5.665 0 0 0 5.668-5.668V22.168a5.665 5.665 0 0 0-5.668-5.668zm0 .75h100.551a4.9 4.9 0 0 1 4.918 4.918v84.676a4.9 4.9 0 0 1-4.918 4.918H13.231a4.9 4.9 0 0 1-4.918-4.918V22.168a4.9 4.9 0 0 1 4.917-4.918zm0 0" fill="#212121"/></svg>
